X:1
T:Flower Duet (Lakmé)
C:Léo Delibes
M:6/8
L:1/8
Q:3/8=84
K:Db
% Sous le dôme épais — melody only, public domain
A |
B3 dBA|G3 AGA|G2AB2d|A6|
d3 cBA|B3 cBA|G2AB2d|A6|
A2Bd2B|A2GA3|B3 dBA|G3 AGA|
G2AB2d|d3 cBA|B3 AGF|A6|]
